doc/_static/funding/anr.svg

<?xml version="1.0" encoding="UTF-8" standalone="no"?>
<svg
   xmlns:dc="http://purl.org/dc/elements/1.1/"
   xmlns:cc="http://creativecommons.org/ns#"
   xmlns:rdf="http://www.w3.org/1999/02/22-rdf-syntax-ns#"
   xmlns:svg="http://www.w3.org/2000/svg"
   xmlns="http://www.w3.org/2000/svg"
   id="svg25"
   version="1.2"
   viewBox="0 0 169.76 59.71"
   height="59.71pt"
   width="169.76pt">
  <metadata
     id="metadata29">
    <rdf:RDF>
      <cc:Work
         rdf:about="">
        <dc:format>image/svg+xml</dc:format>
        <dc:type
           rdf:resource="http://purl.org/dc/dcmitype/StillImage" />
        <dc:title></dc:title>
      </cc:Work>
    </rdf:RDF>
  </metadata>
  <defs
     id="defs8">
    <clipPath
       id="clip1">
      <path
         id="path2"
         d="M 149 0 L 169.761719 0 L 169.761719 21 L 149 21 Z M 149 0 " />
    </clipPath>
    <clipPath
       id="clip2">
      <path
         id="path5"
         d="M 0 12 L 49 12 L 49 59.710938 L 0 59.710938 Z M 0 12 " />
    </clipPath>
  </defs>
  <g
     id="surface311">
    <g
       id="g12"
       clip-rule="nonzero"
       clip-path="url(#clip1)">
      <path
         id="path10"
         d="M 159.648438 1.992188 C 158.460938 1.992188 157.28125 2.257812 156.175781 2.785156 C 154.222656 3.710938 152.746094 5.347656 152.019531 7.386719 C 151.292969 9.425781 151.40625 11.628906 152.335938 13.582031 C 153.265625 15.539062 154.898438 17.015625 156.941406 17.738281 C 158.980469 18.464844 161.179688 18.355469 163.132812 17.421875 C 167.171875 15.503906 168.894531 10.660156 166.976562 6.625 C 166.046875 4.667969 164.410156 3.191406 162.371094 2.46875 C 161.484375 2.152344 160.566406 1.992188 159.648438 1.992188 Z M 159.660156 20.21875 C 158.519531 20.21875 157.375 20.023438 156.269531 19.628906 C 153.722656 18.722656 151.683594 16.882812 150.527344 14.441406 C 148.132812 9.410156 150.28125 3.367188 155.316406 0.972656 C 160.347656 -1.417969 166.390625 0.730469 168.785156 5.761719 C 171.175781 10.796875 169.027344 16.839844 163.996094 19.234375 C 162.617188 19.886719 161.144531 20.21875 159.660156 20.21875 "
         style=" stroke:none;fill-rule:nonzero;fill:rgb(30.249023%,48.223877%,77.912903%);fill-opacity:1;" />
    </g>
    <path
       id="path14"
       d="M 159.652344 6.421875 C 159.113281 6.421875 158.574219 6.539062 158.074219 6.78125 C 156.242188 7.648438 155.460938 9.851562 156.332031 11.683594 C 157.203125 13.515625 159.402344 14.296875 161.234375 13.425781 C 162.121094 13.003906 162.792969 12.261719 163.121094 11.335938 C 163.453125 10.410156 163.402344 9.410156 162.980469 8.523438 C 162.558594 7.636719 161.8125 6.964844 160.890625 6.636719 C 160.484375 6.492188 160.066406 6.421875 159.652344 6.421875 Z M 159.664062 15.785156 C 157.535156 15.785156 155.492188 14.589844 154.519531 12.542969 C 153.175781 9.710938 154.386719 6.316406 157.214844 4.96875 C 158.585938 4.316406 160.128906 4.238281 161.558594 4.746094 C 162.988281 5.257812 164.136719 6.292969 164.789062 7.664062 C 165.441406 9.035156 165.519531 10.578125 165.011719 12.007812 C 164.503906 13.4375 163.46875 14.585938 162.09375 15.238281 C 161.308594 15.609375 160.480469 15.785156 159.664062 15.785156 "
       style=" stroke:none;fill-rule:nonzero;fill:rgb(13.893127%,30.781555%,65.922546%);fill-opacity:1;" />
    <g
       id="g18"
       clip-rule="nonzero"
       clip-path="url(#clip2)">
      <path
         id="path16"
         d="M 26.597656 50.601562 C 25.515625 51.265625 24.34375 51.59375 23.082031 51.59375 C 20.796875 51.59375 18.992188 50.785156 17.671875 49.160156 C 16.347656 47.539062 15.6875 45.464844 15.6875 42.941406 C 15.6875 41.257812 16.03125 39.769531 16.722656 38.476562 C 17.414062 37.183594 18.480469 36.222656 19.925781 35.589844 C 21.367188 34.960938 23.171875 34.707031 25.335938 34.824219 C 25.933594 34.886719 26.535156 34.929688 27.136719 34.960938 C 27.300781 34.96875 27.433594 35.007812 27.589844 35.023438 L 27.589844 47.449219 C 27.589844 48.25 27.640625 49.003906 27.722656 49.734375 C 27.359375 50.066406 26.984375 50.367188 26.597656 50.601562 Z M 48.414062 51.054688 C 46.253906 52.078125 44.761719 52.089844 43.953125 51.101562 C 43.140625 50.105469 42.734375 48.140625 42.734375 45.191406 L 42.734375 28.152344 C 42.734375 23.40625 41.324219 19.632812 38.5 16.839844 C 35.671875 14.042969 31.253906 12.644531 25.242188 12.644531 C 22.597656 12.644531 19.367188 12.929688 15.550781 13.5 C 11.734375 14.074219 7.78125 14.839844 3.695312 15.800781 L 3.695312 29.144531 L 4.144531 29.144531 C 8.351562 25.71875 12.320312 22.820312 16.046875 20.445312 C 19.773438 18.070312 22.539062 16.882812 24.34375 16.882812 C 25.546875 16.882812 26.386719 17.648438 26.867188 19.179688 C 27.347656 20.714844 27.589844 23.34375 27.589844 27.070312 L 27.589844 32.144531 C 27.367188 32.058594 27.148438 31.972656 26.910156 31.894531 C 25.558594 31.445312 24.175781 31.101562 22.765625 30.859375 C 21.351562 30.621094 20.015625 30.496094 18.753906 30.496094 C 15.445312 30.316406 12.351562 30.8125 9.464844 31.984375 C 6.582031 33.15625 4.28125 34.902344 2.570312 37.214844 C 0.855469 39.527344 0 42.1875 0 45.191406 C 0 47.660156 0.554688 50.003906 1.667969 52.226562 C 2.78125 54.449219 4.449219 56.253906 6.671875 57.636719 C 8.894531 59.019531 11.539062 59.710938 14.605469 59.710938 C 17.488281 59.710938 20.015625 59.125 22.179688 57.953125 C 24.34375 56.78125 26.039062 55.367188 27.273438 53.714844 C 27.636719 53.226562 27.945312 52.75 28.226562 52.28125 C 28.707031 53.914062 29.449219 55.3125 30.472656 56.464844 C 32.398438 58.625 35.070312 59.710938 38.5 59.710938 C 41.441406 59.710938 43.800781 58.929688 45.574219 57.363281 C 47.347656 55.804688 48.355469 53.789062 48.597656 51.324219 L 48.414062 51.054688 "
         style=" stroke:none;fill-rule:nonzero;fill:rgb(30.249023%,48.223877%,77.912903%);fill-opacity:1;" />
    </g>
    <path
       id="path20"
       d="M 100.886719 57.546875 C 100.167969 54.839844 99.597656 52.496094 99.175781 50.511719 C 98.753906 48.527344 98.542969 46.398438 98.542969 44.113281 L 98.542969 27.703125 C 98.542969 22.957031 97.132812 19.257812 94.304688 16.613281 C 91.480469 13.96875 87.933594 12.644531 83.667969 12.644531 C 79.757812 12.644531 76.4375 13.710938 73.707031 15.847656 C 71.796875 17.335938 70.285156 19.027344 69.152344 20.910156 L 69.152344 13.1875 L 51.570312 13.1875 L 51.570312 13.546875 L 51.839844 14.539062 C 52.5625 17.242188 53.117188 19.585938 53.507812 21.570312 C 53.898438 23.554688 54.09375 25.6875 54.09375 27.972656 L 54.09375 44.113281 C 54.09375 46.398438 53.898438 48.527344 53.507812 50.511719 C 53.117188 52.496094 52.5625 54.839844 51.839844 57.546875 L 51.570312 58.539062 L 51.570312 58.898438 L 71.765625 58.898438 L 71.765625 58.539062 L 71.496094 57.546875 C 70.773438 54.839844 70.203125 52.496094 69.78125 50.511719 C 69.363281 48.527344 69.152344 46.398438 69.152344 44.113281 L 69.152344 24.035156 C 71.648438 22.582031 74.027344 21.84375 76.273438 21.84375 C 78.378906 21.902344 80.105469 22.5625 81.460938 23.828125 C 82.8125 25.089844 83.488281 27.070312 83.488281 29.773438 L 83.488281 44.113281 C 83.488281 46.398438 83.292969 48.527344 82.902344 50.511719 C 82.511719 52.496094 81.953125 54.839844 81.234375 57.546875 L 80.960938 58.539062 L 80.960938 58.898438 L 101.160156 58.898438 L 101.160156 58.539062 L 100.886719 57.546875 "
       style=" stroke:none;fill-rule:nonzero;fill:rgb(30.249023%,48.223877%,77.912903%);fill-opacity:1;" />
    <path
       id="path22"
       d="M 133.390625 12.511719 C 130.773438 13.324219 128.597656 14.75 126.851562 16.792969 C 125.453125 18.433594 124.257812 20.359375 123.246094 22.539062 L 123.246094 13.1875 L 105.664062 13.1875 L 105.664062 13.546875 L 105.933594 14.539062 C 106.65625 17.242188 107.214844 19.585938 107.601562 21.570312 C 107.996094 23.554688 108.191406 25.6875 108.191406 27.972656 L 108.191406 44.113281 C 108.191406 46.398438 107.996094 48.527344 107.601562 50.511719 C 107.214844 52.496094 106.65625 54.839844 105.933594 57.546875 L 105.664062 58.539062 L 105.664062 58.898438 L 125.859375 58.898438 L 125.859375 58.539062 L 125.589844 57.546875 C 124.871094 54.839844 124.296875 52.496094 123.878906 50.511719 C 123.457031 48.527344 123.246094 46.398438 123.246094 44.113281 L 123.246094 24.804688 C 125.023438 23.742188 126.8125 23.214844 128.613281 23.238281 C 130.742188 23.269531 132.742188 23.828125 134.605469 24.90625 C 136.46875 25.988281 138.152344 27.375 139.65625 29.054688 L 140.105469 29.054688 L 142.453125 13.007812 C 139.023438 11.867188 136.003906 11.699219 133.390625 12.511719 "
       style=" stroke:none;fill-rule:nonzero;fill:rgb(94.078064%,23.678589%,21.351624%);fill-opacity:1;" />
  </g>
</svg>

<svg xmlns="http://www.w3.org/2000/svg" version="1.2" viewBox="0 0 169.76 59.71" height="79.613" width="226.347">
  <defs>
    <clipPath id="a">
      <path d="M149 0h20.762v21H149Zm0 0"/>
    </clipPath>
    <clipPath id="b">
      <path d="M0 12h49v47.71H0Zm0 0"/>
    </clipPath>
  </defs>
  <g clip-path="url(#a)">
    <path d="M159.648 1.992a8.044 8.044 0 0 0-3.472.793 8.048 8.048 0 0 0-4.156 4.602 8.045 8.045 0 0 0 .316 6.195 8.03 8.03 0 0 0 4.605 4.156 8.018 8.018 0 0 0 6.192-.316c4.039-1.918 5.762-6.762 3.844-10.797a8.04 8.04 0 0 0-4.606-4.156 8.091 8.091 0 0 0-2.723-.477Zm.012 18.227c-1.14 0-2.285-.196-3.39-.59a10.025 10.025 0 0 1-5.743-5.188c-2.394-5.03-.246-11.074 4.79-13.468 5.03-2.391 11.074-.243 13.468 4.789 2.39 5.035.242 11.078-4.789 13.472a10.115 10.115 0 0 1-4.336.985" style="stroke:none;fill-rule:nonzero;fill:#4d7bc7;fill-opacity:1"/>
  </g>
  <path d="M159.652 6.422c-.539 0-1.078.117-1.578.36a3.682 3.682 0 0 0-1.742 4.902 3.683 3.683 0 0 0 4.902 1.742 3.653 3.653 0 0 0 1.887-2.09 3.643 3.643 0 0 0-.14-2.813 3.69 3.69 0 0 0-3.328-2.102Zm.012 9.363a5.689 5.689 0 0 1-5.144-3.242 5.696 5.696 0 0 1 2.695-7.574 5.646 5.646 0 0 1 4.344-.223 5.669 5.669 0 0 1 3.23 2.918 5.646 5.646 0 0 1 .223 4.344 5.642 5.642 0 0 1-2.918 3.23 5.672 5.672 0 0 1-2.43.547" style="stroke:none;fill-rule:nonzero;fill:#234ea8;fill-opacity:1"/>
  <g clip-path="url(#b)">
    <path d="M26.598 50.602a6.595 6.595 0 0 1-3.516.992c-2.285 0-4.09-.809-5.41-2.434-1.324-1.62-1.985-3.695-1.985-6.219 0-1.683.344-3.171 1.036-4.464.691-1.293 1.757-2.254 3.203-2.887 1.441-.63 3.246-.883 5.41-.766.598.063 1.2.106 1.8.137.165.008.298.047.454.062V47.45c0 .801.05 1.555.133 2.285a7.352 7.352 0 0 1-1.125.868Zm21.816.453c-2.16 1.023-3.652 1.035-4.46.047-.813-.997-1.22-2.961-1.22-5.91v-17.04c0-4.746-1.41-8.52-4.234-11.312-2.828-2.797-7.246-4.195-13.258-4.195-2.644 0-5.875.285-9.691.855-3.817.574-7.77 1.34-11.856 2.3v13.345h.45c4.207-3.426 8.175-6.325 11.902-8.7 3.726-2.375 6.492-3.562 8.297-3.562 1.203 0 2.043.765 2.523 2.297.48 1.535.723 4.164.723 7.89v5.075c-.223-.086-.442-.172-.68-.25a28.325 28.325 0 0 0-4.144-1.036c-1.414-.238-2.75-.363-4.012-.363-3.309-.18-6.402.317-9.29 1.488-2.882 1.172-5.183 2.918-6.894 5.23C.855 39.528 0 42.189 0 45.192c0 2.47.555 4.813 1.668 7.036 1.113 2.222 2.781 4.027 5.004 5.41 2.223 1.383 4.867 2.074 7.933 2.074 2.883 0 5.41-.586 7.575-1.758 2.164-1.172 3.86-2.586 5.093-4.238.364-.488.672-.965.954-1.434.48 1.633 1.222 3.032 2.246 4.184 1.925 2.16 4.597 3.246 8.027 3.246 2.941 0 5.3-.781 7.074-2.348 1.774-1.558 2.781-3.574 3.024-6.039l-.184-.27" style="stroke:none;fill-rule:nonzero;fill:#4d7bc7;fill-opacity:1"/>
  </g>
  <path d="M100.887 57.547c-.719-2.707-1.29-5.05-1.711-7.035-.422-1.985-.633-4.114-.633-6.399v-16.41c0-4.746-1.41-8.445-4.238-11.09-2.825-2.644-6.371-3.968-10.637-3.968-3.91 0-7.23 1.066-9.961 3.203-1.91 1.488-3.422 3.18-4.555 5.062v-7.723H51.57v.36l.27.992c.722 2.703 1.277 5.047 1.668 7.031.39 1.985.586 4.117.586 6.403v16.14c0 2.285-.196 4.414-.586 6.399-.39 1.984-.946 4.328-1.668 7.035l-.27.992v.36h20.196v-.36l-.27-.992c-.723-2.707-1.293-5.05-1.715-7.035-.418-1.985-.629-4.114-.629-6.399V24.035c2.496-1.453 4.875-2.191 7.121-2.191 2.106.058 3.832.718 5.188 1.984 1.352 1.262 2.027 3.242 2.027 5.945v14.34c0 2.285-.195 4.414-.586 6.399-.39 1.984-.949 4.328-1.668 7.035l-.273.992v.36h20.2v-.36l-.274-.992" style="stroke:none;fill-rule:nonzero;fill:#4d7bc7;fill-opacity:1"/>
  <path d="M133.39 12.512c-2.617.812-4.792 2.238-6.538 4.281-1.399 1.64-2.594 3.566-3.606 5.746v-9.352h-17.582v.36l.27.992c.722 2.703 1.28 5.047 1.668 7.031.394 1.985.59 4.117.59 6.403v16.14c0 2.285-.196 4.414-.59 6.399-.387 1.984-.946 4.328-1.668 7.035l-.27.992v.36h20.195v-.36l-.27-.992c-.718-2.707-1.292-5.05-1.71-7.035-.422-1.985-.633-4.114-.633-6.399V24.805c1.777-1.063 3.567-1.59 5.367-1.567 2.13.032 4.13.59 5.992 1.668 1.864 1.082 3.547 2.469 5.051 4.149h.45l2.347-16.047c-3.43-1.14-6.45-1.309-9.062-.496" style="stroke:none;fill-rule:nonzero;fill:#f03c36;fill-opacity:1"/>
</svg>
